X:10
T:
S:Efter Anna Didriksson, Österlings i Stånga.
M:2/4
L:1/8
K:Bb
F|B B F D/F/|E E D F|d d c (B/c/)|B2 z F|
w:En här-re-man så_ stolt ock båld, som äg-de tun-nor_ guld ock
B B F (D/F/)|E E D F|d d c (A/c/)|B2 z c|
w:fle-ra hem-man_ i sitt våld, fick se en flic-ka_ huld bland
d B d B|e d c> c|d> c B G|F E D2|
w:par-kens stam-mar en-sam stå. Han ta-la-de till hän-ne så:
D F F/ =E/ F|E G G/ ^F/ G|F A A/ G/ A|B B B|]
w:Tra la la la la Tra la la la la Tra la la la la la la la.
